X: 21251
T: THE HAWK -- Hornpipe
C: By James Hill, Newcastle
R: hornpipe
B: K\"ohler's Violin Repository, v.2, 1885 p.125 #1
F: http://www.archive.org/details/klersviolinrepos02rugg
Z: 2012 John Chambers <jc:trillian.mit.edu>
M: C|
L: 1/8
K: E
v(B/c/)ud |\
e2g>e (B>e)g>f | (e>g)f>a (g>b)a>g | ~f2a>f (c>f)a>g | (f>e)d>c (B>c)d>B |
e2g>e (B>e)g>f | (e>g)f>a (g>b)a>g | (f>e)f>g (a>B)c>d | (e>B)g>f e2 :|
|: vB>uB |\
(B>b)g>e (B>a)f>d | B(a/g/)fd edcB | (c>B)d>c (e>d)f>e | (g>f)a>g g2f>g |
(a>b)g>a (f>g)e>f | dbca BgAf | (d>e)f>g (a>B)c>d | (e>B)g>f e2 :|

%%sep 2 1 500

